icons/speech-bubble-chevron-down.svg

<svg xmlns="http://www.w3.org/2000/svg" width="24" height="24" viewBox="0 0 24 24">
  <path d="M15,3 C19.5522847,3 23,6.44771525 23,11 C23,15.5522847 19.5522847,19 15,19 L15,19 L14.492,19 L14.4215793,19.0906275 C13.7103901,19.9663638 12.948642,20.6393906 11.8907103,21.256749 L11.8907103,21.256749 L11.5946555,21.4238497 L11.2369286,21.6140163 L10.9086251,21.7821926 C9.57755795,22.4597178 8,21.4937799 8,20 L8,20 L8,19 C4.27285013,19 1,15.3634999 1,11 C1,6.5377729 4.49099359,3 9,3 L9,3 Z M8.38710056,9.20970461 L8.29289322,9.29289322 C7.93240926,9.65337718 7.90467972,10.2206082 8.20970461,10.6128994 L8.29289322,10.7071068 L11.2928932,13.7071068 C11.6533772,14.0675907 12.2206082,14.0953203 12.6128994,13.7902954 L12.7071068,13.7071068 L15.7071068,10.7071068 C16.0976311,10.3165825 16.0976311,9.68341751 15.7071068,9.29289322 C15.3466228,8.93240926 14.7793918,8.90467972 14.3871006,9.20970461 L14.2928932,9.29289322 L12,11.585 L9.70710678,9.29289322 C9.34662282,8.93240926 8.77939176,8.90467972 8.38710056,9.20970461 Z"/>
</svg>

<svg xmlns="http://www.w3.org/2000/svg" viewBox="0 0 24 24">
  <path d="M15 3c4.55 0 8 3.45 8 8s-3.45 8-8 8h-.5l-.08.1a8.85 8.85 0 0 1-2.53 2.16l-.3.16-.35.2-.33.16A2 2 0 0 1 8 20v-1c-3.73 0-7-3.64-7-8 0-4.46 3.5-8 8-8zM8.39 9.21l-.1.08a1 1 0 0 0-.08 1.32l.08.1 3 3a1 1 0 0 0 1.32.08l.1-.08 3-3a1 1 0 0 0-1.32-1.5l-.1.08L12 11.6 9.7 9.3a1 1 0 0 0-1.31-.08z"/>
</svg>
